client/src/assets/logo-purple.svg

<svg width="123" height="40" viewBox="0 0 123 40" fill="none" xmlns="http://www.w3.org/2000/svg">
<path d="M7.056 13.932L15.66 2.736H24.372L13.608 15.588L25.38 29.88H16.236L7.056 18.108V29.88H0V2.736H7.056V13.932Z" fill="#504DE5"/>
<path d="M34.7357 11.412V29.88H28.2197V11.412H34.7357ZM27.7877 4.32C27.7877 3.816 27.8837 3.348 28.0757 2.916C28.2677 2.46 28.5317 2.064 28.8677 1.728C29.2037 1.392 29.5877 1.128 30.0197 0.936001C30.4757 0.744 30.9557 0.648 31.4597 0.648C31.9637 0.648 32.4317 0.744 32.8637 0.936001C33.3197 1.128 33.7157 1.392 34.0517 1.728C34.3877 2.064 34.6517 2.46 34.8437 2.916C35.0357 3.348 35.1317 3.816 35.1317 4.32C35.1317 4.824 35.0357 5.304 34.8437 5.76C34.6517 6.192 34.3877 6.576 34.0517 6.912C33.7157 7.248 33.3197 7.512 32.8637 7.704C32.4317 7.896 31.9637 7.992 31.4597 7.992C30.9557 7.992 30.4757 7.896 30.0197 7.704C29.5877 7.512 29.2037 7.248 28.8677 6.912C28.5317 6.576 28.2677 6.192 28.0757 5.76C27.8837 5.304 27.7877 4.824 27.7877 4.32Z" fill="#504DE5"/>
<path d="M45.5565 20.592C45.5565 21.192 45.6645 21.756 45.8805 22.284C46.0965 22.788 46.3845 23.232 46.7445 23.616C47.1285 24 47.5725 24.3 48.0765 24.516C48.6045 24.732 49.1685 24.84 49.7685 24.84C50.3445 24.84 50.8845 24.732 51.3885 24.516C51.9165 24.3 52.3605 24 52.7205 23.616C53.1045 23.232 53.4045 22.788 53.6205 22.284C53.8605 21.78 53.9805 21.24 53.9805 20.664C53.9805 20.088 53.8605 19.548 53.6205 19.044C53.4045 18.516 53.1045 18.06 52.7205 17.676C52.3605 17.292 51.9165 16.992 51.3885 16.776C50.8845 16.56 50.3445 16.452 49.7685 16.452C49.1925 16.452 48.6405 16.56 48.1125 16.776C47.6085 16.992 47.1645 17.292 46.7805 17.676C46.4205 18.06 46.1205 18.504 45.8805 19.008C45.6645 19.488 45.5565 20.016 45.5565 20.592ZM53.7645 0H60.3165V29.88H53.7645V27.828C52.3725 29.58 50.4885 30.456 48.1125 30.456C46.7685 30.456 45.5325 30.204 44.4045 29.7C43.2765 29.196 42.2925 28.5 41.4525 27.612C40.6125 26.724 39.9525 25.68 39.4725 24.48C39.0165 23.28 38.7885 21.984 38.7885 20.592C38.7885 19.272 39.0045 18.024 39.4365 16.848C39.8925 15.648 40.5285 14.604 41.3445 13.716C42.1605 12.828 43.1325 12.132 44.2605 11.628C45.4125 11.1 46.6725 10.836 48.0405 10.836C50.3445 10.836 52.2525 11.64 53.7645 13.248V0Z" fill="#504DE5"/>
<path d="M71.5867 0V29.88H65.0707V0H71.5867Z" fill="#504DE5"/>
<path d="M107.934 20.556C107.934 21.156 108.042 21.72 108.258 22.248C108.474 22.752 108.762 23.196 109.122 23.58C109.506 23.964 109.95 24.264 110.454 24.48C110.982 24.696 111.546 24.804 112.146 24.804C112.722 24.804 113.262 24.696 113.766 24.48C114.294 24.264 114.738 23.964 115.098 23.58C115.482 23.196 115.782 22.752 115.998 22.248C116.238 21.72 116.358 21.168 116.358 20.592C116.358 19.992 116.238 19.44 115.998 18.936C115.782 18.432 115.482 17.988 115.098 17.604C114.714 17.22 114.258 16.92 113.73 16.704C113.226 16.488 112.698 16.38 112.146 16.38C111.57 16.38 111.03 16.5 110.526 16.74C110.022 16.956 109.578 17.256 109.194 17.64C108.81 18 108.498 18.432 108.258 18.936C108.042 19.44 107.934 19.98 107.934 20.556ZM122.55 11.412V28.62C122.55 29.652 122.49 30.576 122.37 31.392C122.25 32.208 122.082 32.928 121.866 33.552C121.578 34.344 121.122 35.076 120.498 35.748C119.898 36.444 119.166 37.044 118.302 37.548C117.438 38.052 116.454 38.448 115.35 38.736C114.27 39.024 113.094 39.168 111.822 39.168C110.382 39.168 109.062 38.988 107.862 38.628C106.662 38.268 105.606 37.764 104.694 37.116C103.806 36.492 103.074 35.748 102.498 34.884C101.922 34.044 101.538 33.12 101.346 32.112H108.69C109.146 33.336 110.178 33.948 111.786 33.948C113.154 33.948 114.198 33.564 114.918 32.796C115.662 32.028 116.034 30.96 116.034 29.592V27.828C115.554 28.284 115.086 28.668 114.63 28.98C114.198 29.268 113.754 29.508 113.298 29.7C112.842 29.892 112.362 30.024 111.858 30.096C111.354 30.192 110.802 30.24 110.202 30.24C108.882 30.24 107.67 30.012 106.566 29.556C105.462 29.1 104.502 28.464 103.686 27.648C102.894 26.832 102.27 25.86 101.814 24.732C101.382 23.58 101.166 22.308 101.166 20.916C101.166 19.5 101.406 18.192 101.886 16.992C102.366 15.768 103.014 14.712 103.83 13.824C104.67 12.912 105.654 12.204 106.782 11.7C107.934 11.172 109.182 10.908 110.526 10.908C112.71 10.908 114.546 11.724 116.034 13.356V11.412H122.55Z" fill="#504DE5"/>
<path fill-rule="evenodd" clip-rule="evenodd" d="M87.8923 8.40189C86.9641 7.86599 85.8205 7.86599 84.8923 8.40189L77.5 12.6698C76.5718 13.2057 76 14.1961 76 15.2679V23.8038C76 24.8756 76.5718 25.866 77.5 26.4019L84.8923 30.6698C85.8205 31.2057 86.9641 31.2057 87.8923 30.6698L95.2846 26.4019C96.2128 25.866 96.7846 24.8756 96.7846 23.8038V15.2679C96.7846 14.1961 96.2128 13.2057 95.2846 12.6698L87.8923 8.40189ZM86.3923 23.5359C88.6014 23.5359 90.3923 21.745 90.3923 19.5359C90.3923 17.3267 88.6014 15.5359 86.3923 15.5359C84.1831 15.5359 82.3923 17.3267 82.3923 19.5359C82.3923 21.745 84.1831 23.5359 86.3923 23.5359Z" fill="#504DE5"/>
</svg>

<svg width="123" height="40" fill="none" xmlns="http://www.w3.org/2000/svg"><path d="M7.056 13.932L15.66 2.736h8.712L13.608 15.588 25.38 29.88h-9.144l-9.18-11.772V29.88H0V2.736h7.056v11.196zM34.736 11.412V29.88H28.22V11.412h6.516zM27.788 4.32c0-.504.096-.972.288-1.404a3.68 3.68 0 01.792-1.188c.336-.336.72-.6 1.152-.792a3.673 3.673 0 011.44-.288c.504 0 .972.096 1.404.288a3.68 3.68 0 011.188.792c.336.336.6.732.792 1.188.192.432.288.9.288 1.404 0 .504-.096.984-.288 1.44a3.797 3.797 0 01-.792 1.152 3.68 3.68 0 01-1.188.792c-.432.192-.9.288-1.404.288-.504 0-.984-.096-1.44-.288a3.797 3.797 0 01-1.152-.792c-.336-.336-.6-.72-.792-1.152a3.673 3.673 0 01-.288-1.44zM45.556 20.592c0 .6.108 1.164.325 1.692.215.504.504.948.864 1.332.384.384.828.684 1.332.9a4.425 4.425 0 001.692.324c.575 0 1.116-.108 1.62-.324a3.735 3.735 0 001.331-.9c.385-.384.684-.828.9-1.332a3.72 3.72 0 00.36-1.62 3.72 3.72 0 00-.36-1.62 4.113 4.113 0 00-.9-1.368 3.735 3.735 0 00-1.331-.9 4.069 4.069 0 00-1.62-.324c-.576 0-1.128.108-1.657.324a4.212 4.212 0 00-1.331.9 5.2 5.2 0 00-.9 1.332 3.816 3.816 0 00-.325 1.584zM53.766 0h6.551v29.88h-6.552v-2.052c-1.392 1.752-3.276 2.628-5.652 2.628-1.343 0-2.58-.252-3.708-.756a9.173 9.173 0 01-2.952-2.088 9.803 9.803 0 01-1.98-3.132c-.456-1.2-.684-2.496-.684-3.888 0-1.32.217-2.568.649-3.744a9.63 9.63 0 011.907-3.132 8.774 8.774 0 012.916-2.088c1.153-.528 2.413-.792 3.78-.792 2.304 0 4.212.804 5.724 2.412V0zM71.587 0v29.88H65.07V0h6.516zM107.934 20.556c0 .6.108 1.164.324 1.692.216.504.504.948.864 1.332.384.384.828.684 1.332.9a4.425 4.425 0 001.692.324c.576 0 1.116-.108 1.62-.324a3.735 3.735 0 001.332-.9c.384-.384.684-.828.9-1.332.24-.528.36-1.08.36-1.656 0-.6-.12-1.152-.36-1.656a4.212 4.212 0 00-.9-1.332 4.113 4.113 0 00-1.368-.9 3.98 3.98 0 00-1.584-.324 3.72 3.72 0 00-1.62.36 4.212 4.212 0 00-1.332.9c-.384.36-.696.792-.936 1.296a4.069 4.069 0 00-.324 1.62zm14.616-9.144V28.62c0 1.032-.06 1.956-.18 2.772-.12.816-.288 1.536-.504 2.16a6.462 6.462 0 01-1.368 2.196 8.564 8.564 0 01-2.196 1.8c-.864.504-1.848.9-2.952 1.188-1.08.288-2.256.432-3.528.432-1.44 0-2.76-.18-3.96-.54-1.2-.36-2.256-.864-3.168-1.512a8.436 8.436 0 01-2.196-2.232 7.246 7.246 0 01-1.152-2.772h7.344c.456 1.224 1.488 1.836 3.096 1.836 1.368 0 2.412-.384 3.132-1.152.744-.768 1.116-1.836 1.116-3.204v-1.764c-.48.456-.948.84-1.404 1.152a7.989 7.989 0 01-1.332.72 5.813 5.813 0 01-1.44.396 8.866 8.866 0 01-1.656.144c-1.32 0-2.532-.228-3.636-.684a8.75 8.75 0 01-2.88-1.908c-.792-.816-1.416-1.788-1.872-2.916-.432-1.152-.648-2.424-.648-3.816 0-1.416.24-2.724.72-3.924.48-1.224 1.128-2.28 1.944-3.168a8.922 8.922 0 012.952-2.124c1.152-.528 2.4-.792 3.744-.792 2.184 0 4.02.816 5.508 2.448v-1.944h6.516z" fill="#504DE5"/><path fill-rule="evenodd" clip-rule="evenodd" d="M87.892 8.402a3 3 0 00-3 0L77.5 12.67a3 3 0 00-1.5 2.598v8.536a3 3 0 001.5 2.598l7.392 4.268a3 3 0 003 0l7.393-4.268a3 3 0 001.5-2.598v-8.536a3 3 0 00-1.5-2.598l-7.393-4.268zm-1.5 15.134a4 4 0 100-8 4 4 0 000 8z" fill="#504DE5"/></svg>
